lib/logo_updates/nrk-logo-nrk-folkemusikk-with-bg.svg

<svg width="512" height="84" viewBox="0 0 512 84" fill="none" xmlns="http://www.w3.org/2000/svg">
<rect width="512" height="84" fill="#7B0A02"/>
<path d="M20 63V21.0038H33.7802V63H20ZM52.5283 27.6877L60.4532 63H45.3721L35.9092 21.0038H44.3676C46.3072 20.9786 48.1892 21.6624 49.6607 22.9264C51.1347 24.1373 52.1473 25.8184 52.5283 27.6877ZM62.5233 63V21.0038H76.3035V63H62.5233ZM86.7116 36.9743C85.2267 36.9888 83.7656 36.6003 82.4839 35.8504C81.2193 35.1194 80.1688 34.0689 79.438 32.8041C78.6872 31.5222 78.2986 30.0607 78.3134 28.5751C78.2964 27.0986 78.6853 25.6458 79.438 24.3755C80.1766 23.1245 81.2259 22.0853 82.4839 21.3588C83.766 20.6098 85.2269 20.2213 86.7116 20.2348C88.1877 20.2189 89.6399 20.6078 90.9108 21.3588C92.1562 22.0917 93.1943 23.13 93.9271 24.3755C94.6789 25.6462 95.0677 27.0987 95.0517 28.5751C95.0655 30.0605 94.6769 31.5218 93.9271 32.8041C93.202 34.0633 92.1627 35.113 90.9108 35.8504C89.6398 36.6029 88.1866 36.9918 86.7097 36.9743H86.7116ZM97.1807 63V21.0038H110.962V63H97.1807ZM128.408 43.9538C128.447 43.9946 128.742 44.4776 129.295 45.403C129.848 46.3283 130.567 47.5114 131.454 48.952C132.341 50.392 133.277 51.9199 134.262 53.536C135.247 55.1521 136.174 56.6803 137.043 58.1202C137.908 59.5602 138.894 61.1867 140 63H124.859C123.912 61.4621 123.055 60.0721 122.286 58.83C121.517 57.5878 120.7 56.2471 119.833 54.8077C118.965 53.3698 118.107 51.9699 117.259 50.6081C116.41 49.2464 115.681 48.0536 115.071 47.0297C114.459 46.0051 114.035 45.3149 113.799 44.9594C113.214 44.0771 112.868 43.058 112.794 42.0019C112.853 40.9883 113.179 40.0084 113.74 39.1619C113.976 38.7676 114.41 38.0675 115.041 37.062C115.672 36.0564 116.411 34.8637 117.259 33.4835C118.106 32.1034 118.965 30.6936 119.833 29.2543C120.702 27.815 121.519 26.4643 122.286 25.2025C123.056 23.9419 123.914 22.5421 124.859 21.0029H140L128.289 40.1082C127.926 40.6755 127.722 41.3292 127.697 42.0019C127.736 42.7081 127.983 43.3871 128.406 43.9538H128.408Z" fill="white"/>
<path d="M156 63.0054H162.211V45.6742H178.063L178.714 40.5291H162.211V26.2137H183.683V21.0084H156V63.0054Z" fill="#FFC7BD"/>
<path d="M208.319 34.083C205.854 32.7733 203.094 32.1212 200.304 32.19C197.488 32.1258 194.704 32.7987 192.229 34.1419C189.944 35.4211 188.076 37.3309 186.847 39.643C185.511 42.2371 184.85 45.1256 184.924 48.0424C184.848 50.9363 185.467 53.8062 186.728 56.4122C187.861 58.6868 189.668 60.5563 191.903 61.7652C194.31 63.0258 196.996 63.6567 199.711 63.599C202.554 63.6553 205.365 62.9837 207.875 61.648C210.218 60.3686 212.139 58.4367 213.406 56.0868C214.78 53.4619 215.462 50.5301 215.387 47.5682C215.455 44.7474 214.825 41.9536 213.552 39.4351C212.374 37.1739 210.553 35.3119 208.319 34.083ZM207.963 53.8982C207.299 55.4359 206.173 56.7283 204.74 57.5951C203.301 58.4198 201.666 58.8391 200.008 58.8087C198.382 58.8495 196.779 58.418 195.393 57.5665C194.023 56.6554 192.953 55.3593 192.317 53.8412C191.513 51.8928 191.131 49.7964 191.195 47.6896C191.125 45.6395 191.508 43.5993 192.317 41.7143C192.981 40.2329 194.087 38.9931 195.483 38.1652C196.975 37.344 198.659 36.9356 200.362 36.9822C201.692 36.9489 203.013 37.2011 204.237 37.7216C205.309 38.2051 206.244 38.9473 206.958 39.8815C207.721 40.8957 208.273 42.0515 208.584 43.2817C208.954 44.7212 209.133 46.2033 209.116 47.6896C209.186 49.8182 208.792 51.9365 207.963 53.8982Z" fill="#FFC7BD"/>
<path d="M232.037 58.6569C231.831 58.6799 231.623 58.6904 231.416 58.6885C230.971 58.7013 230.527 58.6203 230.115 58.4509C229.757 58.2904 229.451 58.0347 229.228 57.7115C228.971 57.3283 228.8 56.8942 228.725 56.4388C228.618 55.8339 228.569 55.2202 228.577 54.606V18.3477L222.543 19.2351V57.2687C222.518 58.2656 222.679 59.2587 223.017 60.1968C223.3 60.9595 223.768 61.6402 224.378 62.1784C224.984 62.6995 225.703 63.0738 226.478 63.2725C227.337 63.4959 228.222 63.6053 229.11 63.5979C229.583 63.5979 230.036 63.5781 230.47 63.5397C230.905 63.5012 231.328 63.4412 231.742 63.3613C232.156 63.2815 232.5 63.2036 232.776 63.1257L233.368 58.4519L232.657 58.57C232.422 58.6095 232.215 58.6382 232.037 58.6569Z" fill="#FFC7BD"/>
<path d="M265.133 32.8385H257.739L247.617 43.9588H245.436V18.3477L239.403 19.2351V63.0063H245.436V48.5145H245.534L257.619 63.0063H265.427L251.08 46.8386L265.133 32.8385Z" fill="#FFC7BD"/>
<path d="M291.572 36.6538C290.437 35.182 288.938 34.0305 287.224 33.3119C285.32 32.5344 283.277 32.1519 281.221 32.1879C279.149 32.1528 277.093 32.5559 275.187 33.3708C273.454 34.1296 271.909 35.2606 270.662 36.6834C269.377 38.1778 268.411 39.9188 267.822 41.7998C267.148 43.9526 266.819 46.1986 266.847 48.4543C266.763 51.3043 267.361 54.1333 268.591 56.7059C269.715 58.935 271.531 60.7404 273.767 61.8519C276.39 63.0875 279.269 63.6855 282.167 63.5969C283.561 63.6084 284.955 63.5194 286.336 63.3307C287.491 63.1645 288.63 62.8972 289.738 62.5321C290.837 62.1632 291.905 61.7082 292.932 61.1715L293.346 56.6171C292.596 56.8931 291.837 57.1692 291.068 57.4452C290.299 57.7213 289.501 57.9677 288.673 58.1846C287.838 58.4033 286.988 58.5612 286.13 58.6568C285.266 58.7564 284.397 58.806 283.527 58.8056C281.974 58.8307 280.424 58.6618 278.913 58.3028C277.694 58.0107 276.566 57.4214 275.631 56.5874C274.686 55.687 273.993 54.5553 273.62 53.3045C273.233 52.0378 273.016 50.7254 272.975 49.4016H294.351C294.642 46.9546 294.533 44.4766 294.026 42.0651C293.61 40.1048 292.772 38.2584 291.572 36.6538ZM276.666 38.0743C278.054 37.2306 279.657 36.809 281.28 36.8607C282.904 36.7795 284.509 37.2485 285.834 38.1917C287.012 39.1319 287.852 40.4294 288.229 41.8886C288.525 42.9676 288.67 44.0822 288.661 45.2009H273.105C273.215 44.0215 273.467 42.8596 273.855 41.7406C274.361 40.2412 275.349 38.9518 276.666 38.0743Z" fill="#FFC7BD"/>
<path d="M342.618 33.4301C341.005 32.5541 339.188 32.1253 337.353 32.1879C335.761 32.1833 334.181 32.4535 332.681 32.9865C331.157 33.5322 329.722 34.2996 328.423 35.2639C327.686 35.8099 326.985 36.4024 326.324 37.0382C325.717 35.5573 324.648 34.3124 323.276 33.4893C321.643 32.6089 319.806 32.1801 317.952 32.2471C316.37 32.2478 314.8 32.5179 313.309 33.0457C311.778 33.5843 310.333 34.3412 309.019 35.2932C308.595 35.5998 308.183 35.9321 307.777 36.2791V32.25L301.744 33.1374V63.0082H307.777V40.5105C308.488 40.0449 309.229 39.627 309.995 39.2595C310.934 38.8162 311.915 38.4694 312.923 38.2243C313.853 37.9951 314.806 37.8759 315.763 37.8693C316.642 37.8427 317.517 37.9941 318.336 38.3141C319.014 38.6007 319.613 39.0466 320.081 39.6142C320.595 40.2739 320.949 41.0431 321.117 41.862C321.347 42.9208 321.456 44.0023 321.442 45.0857V63.0082H327.475V43.8426C327.479 42.7111 327.403 41.5809 327.247 40.4602C327.931 40.0109 328.639 39.5998 329.368 39.2289C330.29 38.7648 331.262 38.4076 332.265 38.1641C333.215 37.932 334.188 37.8128 335.165 37.8091C336.034 37.7877 336.898 37.9386 337.708 38.2529C338.398 38.5339 339.008 38.9811 339.483 39.555C339.997 40.2136 340.351 40.9828 340.517 41.8018C340.748 42.8602 340.857 43.9414 340.843 45.0246V63.0073H346.877V43.7834C346.952 41.5461 346.59 39.3156 345.812 37.2168C345.199 35.6341 344.074 34.3014 342.618 33.4301Z" fill="#FFC7BD"/>
<path d="M375.742 55.6431C375.295 55.9142 374.855 56.1666 374.41 56.3805C373.707 56.7244 372.987 57.0307 372.252 57.2983C371.549 57.5522 370.827 57.7501 370.092 57.8899C369.342 58.0303 368.579 58.0996 367.816 58.0969C366.565 58.1448 365.322 57.87 364.208 57.2992C363.25 56.7549 362.509 55.8985 362.108 54.8731C361.62 53.6005 361.388 52.2438 361.427 50.8814V32.2491L355.393 33.1362V51.9452C355.32 54.1899 355.713 56.4254 356.547 58.5108C357.233 60.156 358.465 61.5142 360.037 62.3558C361.789 63.2291 363.73 63.6562 365.686 63.5989C366.922 63.6073 368.154 63.4583 369.353 63.1553C370.497 62.8594 371.6 62.4222 372.637 61.8539C373.703 61.2679 374.712 60.5844 375.652 59.8122C375.826 59.6712 375.997 59.5057 376.17 59.3568L377.042 63.0044H381.715L381.774 32.2462L375.742 33.1334V55.6431Z" fill="#FFC7BD"/>
<path d="M409.692 49.4017C409.088 48.7589 408.39 48.2104 407.622 47.7742C406.828 47.3196 405.997 46.9338 405.137 46.6209C404.507 46.4237 403.886 46.2165 403.275 45.9997C402.663 45.7828 402.052 45.5855 401.44 45.4081C400.829 45.2306 400.237 45.0435 399.666 44.8463C399.13 44.664 398.606 44.4465 398.099 44.1955C397.612 43.9372 397.147 43.6406 396.708 43.3083C396.303 43.0029 395.962 42.6212 395.703 42.1846C395.442 41.7362 395.309 41.2247 395.318 40.7058C395.302 40.1355 395.446 39.5721 395.733 39.079C396.042 38.5948 396.469 38.1978 396.975 37.9257C397.594 37.5862 398.263 37.3464 398.957 37.2149C399.824 37.0493 400.706 36.9704 401.589 36.9793C402.022 36.9793 402.496 36.9998 403.008 37.0383C403.521 37.0767 404.082 37.1479 404.694 37.2465C405.306 37.3451 405.916 37.4732 406.527 37.6289C407.138 37.7847 407.759 37.9651 408.391 38.1623C408.976 38.3423 409.549 38.5598 410.106 38.8138L410.521 34.0218C409.771 33.707 409.031 33.4305 408.303 33.1926C407.574 32.9571 406.834 32.7595 406.084 32.601C405.353 32.4464 404.612 32.3379 403.866 32.2759C403.136 32.2167 402.416 32.187 401.707 32.187C400.073 32.1703 398.444 32.3592 396.857 32.749C395.5 33.0794 394.21 33.6395 393.042 34.4052C391.983 35.1055 391.118 36.0618 390.528 37.1853C389.91 38.4235 389.605 39.7946 389.64 41.178C389.622 42.1744 389.782 43.1661 390.114 44.106C390.394 44.8948 390.815 45.6263 391.356 46.2649C391.882 46.8687 392.489 47.3963 393.16 47.8325C393.858 48.2912 394.601 48.6776 395.378 48.9858C395.81 49.1442 396.264 49.3016 396.739 49.4581C397.213 49.6145 397.676 49.7629 398.129 49.9036C398.581 50.0416 399.024 50.1792 399.46 50.3166C399.892 50.4556 400.317 50.5928 400.731 50.7308C401.145 50.8688 401.55 50.9969 401.944 51.1152C402.473 51.3026 402.987 51.53 403.482 51.7953C403.916 52.0249 404.322 52.3028 404.694 52.6235C405.021 52.9095 405.283 53.2626 405.462 53.6587C405.644 54.0679 405.735 54.5113 405.729 54.9589C405.75 55.3966 405.673 55.8337 405.505 56.2381C405.336 56.6425 405.079 57.0042 404.753 57.2974C404.021 57.9087 403.146 58.3254 402.21 58.509C401.113 58.7511 399.992 58.8703 398.868 58.864C398.166 58.8597 397.464 58.8101 396.768 58.716C395.999 58.6174 395.191 58.4794 394.343 58.302C393.495 58.1245 392.627 57.9077 391.739 57.6514C390.853 57.3951 389.957 57.1094 389.049 56.7946L389.286 61.8225C390.31 62.1774 391.247 62.4631 392.095 62.68C392.944 62.8969 393.752 63.0843 394.52 63.242C395.261 63.3956 396.013 63.4945 396.768 63.5378C397.497 63.5766 398.236 63.5961 398.986 63.5961C400.636 63.6045 402.282 63.4354 403.896 63.0921C405.316 62.8041 406.677 62.2743 407.918 61.5257C409.036 60.8425 409.963 59.8857 410.609 58.7456C411.286 57.4944 411.623 56.0873 411.584 54.6652C411.609 53.6274 411.439 52.594 411.082 51.6189C410.765 50.798 410.293 50.0454 409.692 49.4017Z" fill="#FFC7BD"/>
<path d="M423.914 19.8551C423.301 19.4798 422.594 19.285 421.874 19.2931C421.146 19.2876 420.43 19.482 419.804 19.8551C419.188 20.2168 418.67 20.7246 418.297 21.3338C417.921 21.9477 417.727 22.655 417.735 23.3746C417.729 24.1032 417.923 24.8193 418.297 25.4447C418.658 26.0636 419.179 26.5743 419.804 26.9235C420.436 27.2781 421.15 27.4617 421.874 27.4559C422.59 27.4641 423.294 27.2803 423.914 26.9235C424.523 26.5718 425.025 26.0605 425.364 25.4447C425.719 24.8128 425.903 24.0993 425.897 23.3746C425.905 22.659 425.721 21.9543 425.364 21.3338C425.012 20.7274 424.514 20.219 423.914 19.8551Z" fill="#FFC7BD"/>
<path d="M418.742 63.0054H424.776V32.2472L418.742 33.1343V63.0054Z" fill="#FFC7BD"/>
<path d="M459.734 32.8385H452.34L442.218 43.9588H440.037V18.3477L434.003 19.2351V63.0063H440.037V48.5145H440.135L452.221 63.0063H460.029L445.681 46.8386L459.734 32.8385Z" fill="#FFC7BD"/>
<path d="M483.276 63.0054H491.084L476.736 46.8377L490.788 32.8385H483.394L473.272 43.9588H471.091V18.3477L465.057 19.2351V63.0063H471.091V48.5145H471.189L483.276 63.0054Z" fill="#FFC7BD"/>
</svg>

<svg xmlns="http://www.w3.org/2000/svg" viewBox="0 0 512 84"><path fill="#7B0A02" d="M0 0h512v84H0z"/><path fill="#fff" d="M20 63V21.004h13.78V63H20Zm32.528-35.312L60.453 63h-15.08l-9.464-41.996h8.459a7.965 7.965 0 0 1 5.293 1.922 8.31 8.31 0 0 1 2.867 4.762ZM62.523 63V21.004h13.78V63h-13.78Zm24.189-26.026a8.213 8.213 0 0 1-4.228-1.124 8.336 8.336 0 0 1-3.046-3.046 8.206 8.206 0 0 1-1.125-4.229 8.056 8.056 0 0 1 1.125-4.2 8.437 8.437 0 0 1 3.046-3.016 8.233 8.233 0 0 1 4.228-1.124 8.083 8.083 0 0 1 4.199 1.124 8.504 8.504 0 0 1 3.016 3.016 8.075 8.075 0 0 1 1.125 4.2 8.226 8.226 0 0 1-1.125 4.23 8.4 8.4 0 0 1-3.016 3.045 8.059 8.059 0 0 1-4.201 1.124h.002ZM97.18 63V21.004h13.781V63H97.181Zm31.227-19.046c.039.04.334.524.887 1.449.553.925 1.272 2.108 2.159 3.549a1143.28 1143.28 0 0 1 5.589 9.168A854.89 854.89 0 0 0 140 63h-15.141c-.947-1.538-1.804-2.928-2.573-4.17a388.795 388.795 0 0 1-2.453-4.022 355.984 355.984 0 0 0-2.574-4.2 210.645 210.645 0 0 1-2.188-3.578 62.13 62.13 0 0 0-1.272-2.07 6.127 6.127 0 0 1-1.005-2.958 5.745 5.745 0 0 1 .946-2.84c.236-.394.67-1.094 1.301-2.1.631-1.006 1.37-2.198 2.218-3.578.847-1.38 1.706-2.79 2.574-4.23.869-1.439 1.686-2.79 2.453-4.052.77-1.26 1.628-2.66 2.573-4.2H140l-11.711 19.106a3.773 3.773 0 0 0-.592 1.894c.039.706.286 1.385.709 1.952h.002Z"/><path fill="#FFC7BD" d="M156 63.005h6.211v-17.33h15.852l.651-5.146h-16.503V26.214h21.472v-5.206H156v41.997ZM208.319 34.083a16.228 16.228 0 0 0-8.015-1.893c-2.816-.064-5.6.609-8.075 1.952a13.642 13.642 0 0 0-5.382 5.501 17.382 17.382 0 0 0-1.923 8.4 18.124 18.124 0 0 0 1.804 8.37 12.341 12.341 0 0 0 5.175 5.352 16.093 16.093 0 0 0 7.808 1.834 16.677 16.677 0 0 0 8.164-1.951 13.795 13.795 0 0 0 5.531-5.561 17.418 17.418 0 0 0 1.981-8.519 17.114 17.114 0 0 0-1.835-8.133 12.924 12.924 0 0 0-5.233-5.352Zm-.356 19.815a8.048 8.048 0 0 1-3.223 3.697 9.178 9.178 0 0 1-4.732 1.214 8.413 8.413 0 0 1-4.615-1.242 8.347 8.347 0 0 1-3.076-3.726 14.937 14.937 0 0 1-1.122-6.151c-.07-2.05.313-4.09 1.122-5.976a7.868 7.868 0 0 1 3.166-3.549 9.575 9.575 0 0 1 4.879-1.183 9.306 9.306 0 0 1 3.875.74 7.097 7.097 0 0 1 2.721 2.16 9.546 9.546 0 0 1 1.626 3.4c.37 1.44.549 2.921.532 4.408a14.708 14.708 0 0 1-1.153 6.208ZM232.037 58.657a5.177 5.177 0 0 1-.621.032 3.183 3.183 0 0 1-1.301-.238 2.142 2.142 0 0 1-.887-.74 3.225 3.225 0 0 1-.503-1.272 9.79 9.79 0 0 1-.148-1.833V18.348l-6.034.887V57.27c-.025.997.136 1.99.474 2.928a4.931 4.931 0 0 0 1.361 1.981 5.203 5.203 0 0 0 2.1 1.095c.859.223 1.744.332 2.632.325.473 0 .926-.02 1.36-.058a12.53 12.53 0 0 0 1.272-.179c.414-.08.758-.157 1.034-.235l.592-4.674-.711.118c-.235.04-.442.068-.62.087ZM265.133 32.839h-7.394l-10.122 11.12h-2.181V18.348l-6.033.887v43.771h6.033V48.514h.098l12.085 14.492h7.808L251.08 46.84l14.053-14ZM291.572 36.654a10.73 10.73 0 0 0-4.348-3.342 15.179 15.179 0 0 0-6.003-1.124 14.714 14.714 0 0 0-6.034 1.183 12.894 12.894 0 0 0-4.525 3.312 14.486 14.486 0 0 0-2.84 5.117 21.384 21.384 0 0 0-.975 6.654 17.907 17.907 0 0 0 1.744 8.252 11.559 11.559 0 0 0 5.176 5.146 18.395 18.395 0 0 0 8.4 1.745 29.033 29.033 0 0 0 4.169-.266 19.955 19.955 0 0 0 3.402-.799 22.037 22.037 0 0 0 3.194-1.36l.414-4.555c-.75.276-1.509.552-2.278.828-.769.276-1.567.523-2.395.74a17.83 17.83 0 0 1-2.543.472c-.864.1-1.733.149-2.603.149a18.656 18.656 0 0 1-4.614-.503 7.587 7.587 0 0 1-3.282-1.716 7.491 7.491 0 0 1-2.011-3.283 14.94 14.94 0 0 1-.645-3.902h21.376a22.655 22.655 0 0 0-.325-7.337 13.83 13.83 0 0 0-2.454-5.411Zm-14.906 1.42a8.37 8.37 0 0 1 4.614-1.213 7.231 7.231 0 0 1 4.554 1.33 6.955 6.955 0 0 1 2.395 3.698 12.15 12.15 0 0 1 .432 3.312h-15.556c.11-1.18.362-2.341.75-3.46a7.153 7.153 0 0 1 2.811-3.667ZM342.618 33.43a10.294 10.294 0 0 0-5.265-1.242 13.832 13.832 0 0 0-4.672.798 16.444 16.444 0 0 0-4.258 2.278 21.426 21.426 0 0 0-2.099 1.774 7.42 7.42 0 0 0-3.048-3.549 10.423 10.423 0 0 0-5.324-1.242c-1.582 0-3.152.27-4.643.799a16.833 16.833 0 0 0-4.29 2.247c-.424.307-.836.64-1.242.986V32.25l-6.033.887v29.871h6.033V40.51a19.24 19.24 0 0 1 2.218-1.25c.939-.444 1.92-.79 2.928-1.036a12.22 12.22 0 0 1 2.84-.355 6.527 6.527 0 0 1 2.573.445 4.565 4.565 0 0 1 1.745 1.3c.514.66.868 1.43 1.036 2.248.23 1.059.339 2.14.325 3.224v17.922h6.033V43.843a23.919 23.919 0 0 0-.228-3.383c.684-.45 1.392-.86 2.121-1.231a13.557 13.557 0 0 1 2.897-1.065c.95-.232 1.923-.351 2.9-.355a6.58 6.58 0 0 1 2.543.444c.69.28 1.3.728 1.775 1.302a5.393 5.393 0 0 1 1.034 2.247c.231 1.058.34 2.14.326 3.223v17.982h6.034V43.783a17.232 17.232 0 0 0-1.065-6.566 7.623 7.623 0 0 0-3.194-3.787ZM375.742 55.643a15.75 15.75 0 0 1-1.332.737c-.703.344-1.423.65-2.158.918a14.13 14.13 0 0 1-2.16.592c-.75.14-1.513.21-2.276.207a7.301 7.301 0 0 1-3.608-.798 4.801 4.801 0 0 1-2.1-2.426 10.324 10.324 0 0 1-.681-3.992V32.25l-6.034.887v18.81c-.073 2.244.32 4.48 1.154 6.565a7.738 7.738 0 0 0 3.49 3.845c1.752.873 3.693 1.3 5.649 1.243 1.236.008 2.468-.14 3.667-.444a14.267 14.267 0 0 0 3.284-1.301 19.7 19.7 0 0 0 3.015-2.042c.174-.14.345-.306.518-.455l.872 3.647h4.673l.059-30.758-6.032.887v22.51ZM409.692 49.402a8.811 8.811 0 0 0-2.07-1.628 16.034 16.034 0 0 0-2.485-1.153 52.2 52.2 0 0 1-1.862-.621 32.965 32.965 0 0 0-1.835-.592 37.405 37.405 0 0 1-1.774-.562c-.536-.182-1.06-.4-1.567-.65a10.304 10.304 0 0 1-1.391-.888 3.896 3.896 0 0 1-1.005-1.123 2.842 2.842 0 0 1-.385-1.48 3.064 3.064 0 0 1 .415-1.626 3.362 3.362 0 0 1 1.242-1.153 6.725 6.725 0 0 1 1.982-.711 13.316 13.316 0 0 1 2.632-.236 19.081 19.081 0 0 1 3.105.267c.612.1 1.222.227 1.833.383s1.232.336 1.864.533c.585.18 1.158.398 1.715.652l.415-4.792a29.06 29.06 0 0 0-2.218-.83 22.042 22.042 0 0 0-2.219-.591 17.876 17.876 0 0 0-2.218-.325c-.73-.06-1.45-.089-2.159-.089a19.495 19.495 0 0 0-4.85.562c-1.357.33-2.647.89-3.815 1.656a7.532 7.532 0 0 0-2.514 2.78 8.462 8.462 0 0 0-.888 3.993 8.338 8.338 0 0 0 .474 2.928c.28.789.701 1.52 1.242 2.159a8.633 8.633 0 0 0 1.804 1.568c.698.458 1.441.845 2.218 1.153.432.158.886.316 1.361.472.474.157.937.305 1.39.446.452.138.895.275 1.331.413.432.139.857.276 1.271.414.414.138.819.266 1.213.384.529.188 1.043.415 1.538.68.434.23.84.508 1.212.828.327.287.589.64.768 1.036.182.409.273.852.267 1.3a2.96 2.96 0 0 1-.976 2.339 5.67 5.67 0 0 1-2.543 1.211 15.115 15.115 0 0 1-3.342.355 16.431 16.431 0 0 1-2.1-.148 31.322 31.322 0 0 1-2.425-.414 35.976 35.976 0 0 1-2.604-.65 54.152 54.152 0 0 1-2.69-.857l.237 5.027c1.024.355 1.961.641 2.809.858.849.217 1.657.404 2.425.562.741.154 1.493.253 2.248.296a41.72 41.72 0 0 0 2.218.058c1.65.009 3.296-.16 4.91-.504a12.66 12.66 0 0 0 4.022-1.566 7.72 7.72 0 0 0 2.691-2.78 8.108 8.108 0 0 0 .975-4.08 8.28 8.28 0 0 0-.502-3.047 6.882 6.882 0 0 0-1.39-2.217ZM423.914 19.855a3.824 3.824 0 0 0-2.04-.562 3.985 3.985 0 0 0-2.07.562 4.349 4.349 0 0 0-1.507 1.479 3.825 3.825 0 0 0-.562 2.04 3.969 3.969 0 0 0 .562 2.07c.361.62.882 1.13 1.507 1.48a4.164 4.164 0 0 0 2.07.532 3.997 3.997 0 0 0 2.04-.532 3.856 3.856 0 0 0 1.45-1.48 4.156 4.156 0 0 0 .533-2.07 4.002 4.002 0 0 0-.533-2.04 4.187 4.187 0 0 0-1.45-1.479ZM418.742 63.005h6.034V32.247l-6.034.887v29.871ZM459.734 32.839h-7.394l-10.122 11.12h-2.181V18.348l-6.034.887v43.771h6.034V48.514h.098l12.086 14.492h7.808L445.681 46.84l14.053-14ZM483.276 63.005h7.808l-14.348-16.167 14.052-14h-7.394l-10.122 11.12h-2.181v-25.61l-6.034.887v43.771h6.034V48.514h.098l12.087 14.491Z"/></svg>
